healthcode/common/icons/push_pin.svg

<svg enable-background="new 0 0 24 24" height="24" viewBox="0 0 24 24" width="24" xmlns="http://www.w3.org/2000/svg"><path d="m0 0h24v24h-24z" fill="none"/><path d="m14 4v5c0 1.12.37 2.16 1 3h-6c.65-.86 1-1.9 1-3v-5zm3-2h-10c-.55 0-1 .45-1 1s.45 1 1 1h1v5c0 1.66-1.34 3-3 3v2h5.97v7l1 1 1-1v-7h6.03v-2c-1.66 0-3-1.34-3-3v-5h1c.55 0 1-.45 1-1s-.45-1-1-1z"/></svg>

<svg xmlns="http://www.w3.org/2000/svg" enable-background="new 0 0 24 24" height="24px" viewBox="0 0 24 24" width="24px" fill="#000000"><g><rect fill="none" height="24" width="24"/></g><g><path d="M14,4v5c0,1.12,0.37,2.16,1,3H9c0.65-0.86,1-1.9,1-3V4H14 M17,2H7C6.45,2,6,2.45,6,3c0,0.55,0.45,1,1,1c0,0,0,0,0,0l1,0v5 c0,1.66-1.34,3-3,3v2h5.97v7l1,1l1-1v-7H19v-2c0,0,0,0,0,0c-1.66,0-3-1.34-3-3V4l1,0c0,0,0,0,0,0c0.55,0,1-0.45,1-1 C18,2.45,17.55,2,17,2L17,2z"/></g></svg>
